X:1
T:Anne Knutsdotter
T:Anne Knutsdotter
T:Christian Haslerud
C:Christian Haslerud
%%score [ 1 2 3 4 ]
L:1/8
Q:1/4=84
M:2/4
K:C
V:1 treble-8 nm="T1"
V:2 treble-8 nm="T2"
V:3 bass nm="B1"
V:4 bass nm="B2"
V:1
"^Moderato"!mf! G | E3/2 F/ G A | G2 c d | e3/2 c/ e f | g z!f! f2 | e3 d | c2 e2 |!>(! d4- | %8
w: Eg|hej- ter An- ne|Knuts- dot- ter,|Ka- ri er mi|Mor og|Jon han|er min|Bror;|
 d2!>)! z!mf! G | E3/2 F/ G A | G2 c d | e3/2 c/!<(! e f!<)! | g z!f! a2 | g2 g2 | ^f2 f2 | g4- | %16
w: _ me|bur up- paa ejn|Plass, som at|in- gen skul- de|tru, at|no- kon|kun- de|bu.|
 g2 z!p! e | (3(gf) e (3(gf) e | a2 a2 | d d g f | e2 e!mf! e | (3(gf) e!<(! (3(gf) e!<)! | a2 a2 | %23
w: _ Og|Plas- * sen hej- * ter|U- ren,|Lu- ren, Him- mel-|tu- ren, og|Plas- * sen hej- * ter|U- ren,|
 d d g f |!>(! e2 e!>)! z |!p! c d!<(! e f!<)! |!>(! e3/2 c/!>)! (dB) |!mf! c d!<(! e f!<)! | %28
w: Lu- ren, Him- mel-|tu- ren,|Stein- röjs, Stein- röjs,|Svelt- i- hel, _|Stejn- röjs, Stejn- röjs,|
!>(! e3/2 c/!>)! (dB) |!pp! e z d z | c2 z |] %31
w: Svelt- i- hel, _|Svelt- i-|hel!|
V:2
!mf! E | C3/2 D/ E F | E2 G G | G3/2 G/ c c | c z!f! c2 | c3 B | c2 c2 |!>(! B4- | B2!>)! z!mf! G | %9
w: Eg|hej- ter An- ne|Knuts- dot- ter,|Ka- ri er mi|Mor og|Jon han|er min|Bror;|_ me|
 C3/2 D/ E F | E2 G G | G3/2 G/!<(! c c!<)! | c z!f! e2 | d2 d2 | c2 c2 | B4- | B2 z!p! G | %17
w: bur up- paa ejn|Plass, som at|in- gen skul- de|tru, at|no- kon|kun- de|bu.|_ Og|
 (3:2:2c2 c (3:2:2c2 c | c2 c2 | B B B B | c2 G!mf! c | (3:2:2c2 c!<(! (3:2:2c2 c!<)! | c2 c2 | %23
w: Plas- sen hej- ter|U- ren,|Lu- ren, Him- mel-|tu- ren, og|Plas- sen hej- ter|U- ren,|
 B B B B |!>(! G2 G!>)! z |!p! G G!<(! G c!<)! |!>(! c3/2 c/!>)! B2 |!mf! c B!<(! c d!<)! | %28
w: Lu- ren, Him- mel-|tu- ren,|Stein- röjs, Stein- röjs,|Svelt- i- hel,|Stejn- röjs, Stejn- röjs,|
!>(! c3/2 c/!>)! B2 |!pp! c z B z | G2 z |] %31
w: Svelt- i- hel,|Svelt- i-|hel!|
V:3
!mf! C, | C,3/2 C,/ C, C, | C,2 E, F, | G,3/2 E,/ G, G, | G, z!f! A,2 | G,3 G, | G,2 G,2 | %7
w: Eg|hej- ter An- ne|Knuts- dot- ter,|Ka- ri er mi|Mor og|Jon han|er min|
!>(! G,4- | G,2!>)! z!mf! G, | C,3/2 C,/ C, C, | C,2 E, F, | G,3/2 E,/!<(! G, G,!<)! | G, z!f! C2 | %13
w: Bror;|_ me|bur up- paa ejn|Plass, som at|in- gen skul- de|tru, at|
 B,2 B,2 | A,2 A,2 | G,4- | G,2 z!p! C, | (3(E,D,) C, (3(E,D,) C, | F,2 F,2 | G, F, E, D, | %20
w: no- kon|kun- de|bu.|_ Og|Plas- * sen hej- * ter|U- ren,|Lu- ren, Him- mel-|
 C,2 C,!mf! G, | (3:2:2G,2 G,!<(! (3:2:2G,2 G,!<)! | F,2 F,2 | F, F, E, D, |!>(! C,2 C,!>)! z | %25
w: tu- ren, og|Plas- sen hej- ter|U- ren,|Lu- ren, Him- mel-|tu- ren,|
!p! E, D,!<(! C, C,!<)! |!>(! G,3/2 E,/!>)! G,2 |!mf! G, F,!<(! E, G,!<)! |!>(! G,3/2 G,/!>)! G,2 | %29
w: Stein- röjs, Stein- röjs,|Svelt- i- hel,|Stejn- röjs, Stejn- röjs,|Svelt- i- hel,|
!pp! G, z F, z | E,2 z |] %31
w: Svelt- i-|hel!|
V:4
!mf! C, | C,3/2 C,/ C, C, | C,2 C, C, | C,3/2 C,/ C, D, | E, z!f! F,2 | G,3 F, | E,2 C,2 | %7
w: Eg|hej- ter An- ne|Knuts- dot- ter,|Ka- ri er mi|Mor og|Jon han|er min|
!>(! G,,4- | G,,2!>)! z!mf! G,, | C,3/2 C,/ C, C, | C,2 C, C, | C,3/2 C,/!<(! C, D,!<)! | %12
w: Bror;|_ me|bur up- paa ejn|Plass, som at|in- gen skul- de|
 E, z!f! C,2 | D,2 D,2 | D,2 D,2 | G,,4- | G,,2 z2 | z4 | z4 | z4 | z2 z!mf! C, | %21
w: tru, at|no- kon|kun- de|bu.|_||||og|
 (3(E,D,) C,!<(! (3(E,D,) C,!<)! | F,2 F,,2 | G,, G,, G,, G,, |!>(! C,2 C,!>)! z | %25
w: Plas- * sen hej- * ter|U- ren,|Lu- ren, Him- mel-|tu- ren,|
!p! C, B,,!<(! C, A,,!<)! |!>(! G,,3/2 G,,/!>)! (G,F,) |!mf! E, D,!<(! C, B,,!<)! | %28
w: Stein- röjs, Stein- röjs,|Svelt- i- hel, _|Stejn- röjs, Stejn- röjs,|
!>(! C,3/2 E,/!>)! G,2 |!pp! C, z G,, z | C,2 z |] %31
w: Svelt- i- hel,|Svelt- i-|hel!|

